X:1
T:Sour Krout
M:6/8
L:1/8
R:Jig
B:Elias Howe – Musician’s Omnibus Nos. 6 & 7 (Boston, 1880-1882, p. 642)
B:  http://ks4.imslp.net/files/imglnks/usimg/c/c7/IMSLP601433-PMLP562790-ONeill_Rare_Medium_M40_M8_v6.7_text.pdf
Z:AK/Fiddler’s Companion
K:G
d|gfg d2d|dec A2c|Bdg ecg|g3 f2d|
gfg d2d|dec A2c|BdB cAF|G2G G2:|
|:B|A2F D2c|BdB G2d|e2c A2g|faf d2g|
e2g d2g|cAc B2d|EcB AGF|G3 G2:|]

